X: 40583
T: Tommy's Tarbukas
R: reel
M: 4/4
K: Eminor
|:B2 AB GEEG|FDAD BDAD|B2AB GEEG|FDAF GEGA|
B2 AB GEEG|FDAD BDAD|B2GB FDDF|1 EeBA GEGA:|2 EeBA GEED||
|:BEGE cEAG|FAdc BgdB|BEGE cEAG|FdAF GEED|
BEGE cEAG|FAdc BgdB|dBGc AFDc|1 BE^DE GEGA:|2 BE^DE GEE2||

